dde/zh_CN/icon/S.svg

<?xml version="1.0" encoding="iso-8859-1"?>
<!-- Generator: Adobe Illustrator 18.0.0, SVG Export Plug-In . SVG Version: 6.00 Build 0)  -->
<!DOCTYPE svg PUBLIC "-//W3C//DTD SVG 1.1//EN" "http://www.w3.org/Graphics/SVG/1.1/DTD/svg11.dtd">
<svg version="1.1" id="&#x56FE;&#x5C42;_1" xmlns="http://www.w3.org/2000/svg" xmlns:xlink="http://www.w3.org/1999/xlink" x="0px"
	 y="0px" viewBox="0 0 20 20" enable-background="new 0 0 20 20" xml:space="preserve">
<g>
	<path opacity="0.1" fill="#FFFFFF" d="M15.7,19.5H4.3c-2.09,0-3.8-1.71-3.8-3.8V4.3c0-2.09,1.71-3.8,3.8-3.8h11.4
		c2.09,0,3.8,1.71,3.8,3.8v11.4C19.5,17.79,17.79,19.5,15.7,19.5z"/>
	<path fill="none" stroke="#CBCBCB" stroke-miterlimit="10" d="M15.5,19.5h-11c-2.209,0-4-1.791-4-4v-11c0-2.209,1.791-4,4-4h11
		c2.209,0,4,1.791,4,4v11C19.5,17.709,17.709,19.5,15.5,19.5z"/>
	<g>
		<path d="M9.451,13.992c-0.383,0-0.837-0.049-1.349-0.145c-0.505-0.095-0.877-0.213-1.104-0.352l0.035-1.277
			c0.29,0.194,0.654,0.359,1.087,0.49c0.511,0.156,1.006,0.235,1.469,0.235c1.386,0,2.187-0.195,2.187-1.189
			c0-0.271-0.082-0.518-0.243-0.735c-0.155-0.208-0.371-0.395-0.641-0.556c-0.264-0.156-0.745-0.389-1.47-0.712
			c-0.971-0.436-1.617-0.844-1.92-1.211C7.203,8.181,7.052,7.763,7.052,7.299c0-0.709,0.309-1.257,0.943-1.674
			c0.638-0.42,1.683-0.633,2.662-0.633c0.71,0,1.332,0.159,2.343,0.485v1.009c-1.011-0.283-1.467-0.58-2.413-0.58
			c-0.619,0-1.245,0.12-1.64,0.357c-0.399,0.239-0.701,0.48-0.701,0.939c0,0.39,0.116,0.713,0.402,0.958
			c0.272,0.234,0.828,0.542,1.726,0.942c0.953,0.411,1.618,0.825,1.993,1.23c0.367,0.396,0.55,0.847,0.55,1.339
			c0,0.752-0.296,1.312-0.9,1.714C11.409,13.787,10.544,13.992,9.451,13.992z"/>
	</g>
</g>
</svg>

<?xml version="1.0" encoding="UTF-8" standalone="no"?>
<!-- Generator: Adobe Illustrator 18.0.0, SVG Export Plug-In . SVG Version: 6.00 Build 0)  -->

<svg
   xmlns:dc="http://purl.org/dc/elements/1.1/"
   xmlns:cc="http://creativecommons.org/ns#"
   xmlns:rdf="http://www.w3.org/1999/02/22-rdf-syntax-ns#"
   xmlns:svg="http://www.w3.org/2000/svg"
   xmlns="http://www.w3.org/2000/svg"
   xmlns:sodipodi="http://sodipodi.sourceforge.net/DTD/sodipodi-0.dtd"
   xmlns:inkscape="http://www.inkscape.org/namespaces/inkscape"
   version="1.1"
   id="图层_1"
   x="0px"
   y="0px"
   viewBox="0 0 20 20"
   enable-background="new 0 0 20 20"
   xml:space="preserve"
   sodipodi:docname="S.svg"
   width="20"
   height="20"
   inkscape:version="0.92.1 r15371"><metadata
     id="metadata17"><rdf:RDF><cc:Work
         rdf:about=""><dc:format>image/svg+xml</dc:format><dc:type
           rdf:resource="http://purl.org/dc/dcmitype/StillImage" /><dc:title></dc:title></cc:Work></rdf:RDF></metadata><defs
     id="defs15" /><sodipodi:namedview
     pagecolor="#ffffff"
     bordercolor="#666666"
     borderopacity="1"
     objecttolerance="10"
     gridtolerance="10"
     guidetolerance="10"
     inkscape:pageopacity="0"
     inkscape:pageshadow="2"
     inkscape:window-width="836"
     inkscape:window-height="480"
     id="namedview13"
     showgrid="false"
     fit-margin-top="0"
     fit-margin-left="0"
     fit-margin-right="0"
     fit-margin-bottom="0"
     inkscape:zoom="11.8"
     inkscape:cx="10"
     inkscape:cy="10"
     inkscape:window-x="0"
     inkscape:window-y="0"
     inkscape:window-maximized="0"
     inkscape:current-layer="图层_1" /><g
     id="g10"><path
       d="M 15.7,19.5 H 4.3 C 2.21,19.5 0.5,17.79 0.5,15.7 V 4.3 C 0.5,2.21 2.21,0.5 4.3,0.5 h 11.4 c 2.09,0 3.8,1.71 3.8,3.8 v 11.4 c 0,2.09 -1.71,3.8 -3.8,3.8 z"
       id="path2"
       inkscape:connector-curvature="0"
       style="opacity:0.1;fill:#ffffff" /><path
       stroke-miterlimit="10"
       d="m 15.5,19.5 h -11 c -2.209,0 -4,-1.791 -4,-4 v -11 c 0,-2.209 1.791,-4 4,-4 h 11 c 2.209,0 4,1.791 4,4 v 11 c 0,2.209 -1.791,4 -4,4 z"
       id="path4"
       inkscape:connector-curvature="0"
       style="fill:none;stroke:#cbcbcb;stroke-miterlimit:10" /><g
       id="g8"><path
         d="M 9.451,13.992 C 9.068,13.992 8.614,13.943 8.102,13.847 7.597,13.752 7.225,13.634 6.998,13.495 l 0.035,-1.277 c 0.29,0.194 0.654,0.359 1.087,0.49 0.511,0.156 1.006,0.235 1.469,0.235 1.386,0 2.187,-0.195 2.187,-1.189 0,-0.271 -0.082,-0.518 -0.243,-0.735 C 11.378,10.811 11.162,10.624 10.892,10.463 10.628,10.307 10.147,10.074 9.422,9.751 8.451,9.315 7.805,8.907 7.502,8.54 7.203,8.181 7.052,7.763 7.052,7.299 7.052,6.59 7.361,6.042 7.995,5.625 8.633,5.205 9.678,4.992 10.657,4.992 c 0.71,0 1.332,0.159 2.343,0.485 v 1.009 c -1.011,-0.283 -1.467,-0.58 -2.413,-0.58 -0.619,0 -1.245,0.12 -1.64,0.357 -0.399,0.239 -0.701,0.48 -0.701,0.939 0,0.39 0.116,0.713 0.402,0.958 0.272,0.234 0.828,0.542 1.726,0.942 0.953,0.411 1.618,0.825 1.993,1.23 0.367,0.396 0.55,0.847 0.55,1.339 0,0.752 -0.296,1.312 -0.9,1.714 -0.608,0.402 -1.473,0.607 -2.566,0.607 z"
         id="path6"
         inkscape:connector-curvature="0" /></g></g></svg>
